svgs/regular/starfighter.svg

<svg xmlns="http://www.w3.org/2000/svg" viewBox="0 0 640 512"><!--! Font Awesome Pro 6.4.2 by @fontawesome - https://fontawesome.com License - https://fontawesome.com/license (Commercial License) Copyright 2023 Fonticons, Inc. --><path d="M254.4 35C256.9 15 274 0 294.1 0h51.8c20.2 0 37.2 15 39.7 35l25.8 206.4c4.1-.9 8.3-1.4 12.6-1.4h32c30.9 0 56 25.1 56 56v56h56V168c-13.3 0-24-10.7-24-24s10.7-24 24-24V96c0-13.3 10.7-24 24-24s24 10.7 24 24v24c13.3 0 24 10.7 24 24s-10.7 24-24 24V448c0 13.3-10.7 24-24 24s-24-10.7-24-24v-2.7l-88 29.3V480c0 17.7-14.3 32-32 32s-32-14.3-32-32v-.6c-8.8-1.3-17-4.6-24-9.5c-9.1 6.3-20.1 10-32 10H280c-11.9 0-22.9-3.7-32-10c-7 4.9-15.2 8.2-24 9.5v.6c0 17.7-14.3 32-32 32s-32-14.3-32-32v-5.3L72 445.3V448c0 13.3-10.7 24-24 24s-24-10.7-24-24V168c-13.3 0-24-10.7-24-24s10.7-24 24-24V96c0-13.3 10.7-24 24-24s24 10.7 24 24v24c13.3 0 24 10.7 24 24s-10.7 24-24 24V352h56V296c0-30.9 25.1-56 56-56h32c4.3 0 8.6 .5 12.6 1.4L254.4 35zM368 424V296 281.5L338.8 48H301.2L272 281.5V296 424c0 4.4 3.6 8 8 8h80c4.4 0 8-3.6 8-8zm48-128V424c0 4.4 3.6 8 8 8h32c4.4 0 8-3.6 8-8V296c0-4.4-3.6-8-8-8H424c-4.4 0-8 3.6-8 8zm-200-8H184c-4.4 0-8 3.6-8 8V424c0 4.4 3.6 8 8 8h32c4.4 0 8-3.6 8-8V296c0-4.4-3.6-8-8-8zm104-64c17.7 0 32 14.3 32 32v48c0 8.8-7.2 16-16 16H304c-8.8 0-16-7.2-16-16V256c0-17.7 14.3-32 32-32z"/></svg>

<svg xmlns="http://www.w3.org/2000/svg" viewBox="0 0 640 512"><!--! Font Awesome Pro 6.1.1 by @fontawesome - https://fontawesome.com License - https://fontawesome.com/license (Commercial License) Copyright 2022 Fonticons, Inc. --><path d="M352 256V304C352 312.8 344.8 320 336 320H304C295.2 320 288 312.8 288 304V256C288 238.3 302.3 224 320 224C337.7 224 352 238.3 352 256zM254.4 35.04C256.9 15.02 273.1 0 294.1 0H345.9C366 0 383.1 15.02 385.6 35.04L411.4 241.4C415.4 240.5 419.7 240 424 240H456C486.9 240 512 265.1 512 296V352H568V168C554.7 168 544 157.3 544 144C544 130.7 554.7 120 568 120V96C568 82.75 578.7 72 592 72C605.3 72 616 82.75 616 96V120C629.3 120 640 130.7 640 144C640 157.3 629.3 168 616 168V448C616 461.3 605.3 472 592 472C578.7 472 568 461.3 568 448V445.3L480 474.7V480C480 497.7 465.7 512 448 512C430.3 512 416 497.7 416 480V479.4C407.2 478.2 399 474.8 392 469.1C382.9 476.3 371.9 480 360 480H280C268.1 480 257.1 476.3 248 469.1C241 474.8 232.8 478.2 224 479.4V480C224 497.7 209.7 512 192 512C174.3 512 160 497.7 160 480V474.7L72 445.3V448C72 461.3 61.25 472 48 472C34.75 472 24 461.3 24 448V168C10.75 168 0 157.3 0 144C0 130.7 10.75 120 24 120V96C24 82.75 34.75 72 48 72C61.25 72 72 82.75 72 96V120C85.25 120 96 130.7 96 144C96 157.3 85.25 168 72 168V352H128V296C128 265.1 153.1 240 184 240H216C220.3 240 224.6 240.5 228.6 241.4L254.4 35.04zM368 424V281.5L338.8 48H301.2L271.1 281.5V424C271.1 428.4 275.6 432 279.1 432H360C364.4 432 368 428.4 368 424H368zM416 296V424C416 428.4 419.6 432 424 432H456C460.4 432 464 428.4 464 424V296C464 291.6 460.4 288 456 288H424C419.6 288 416 291.6 416 296zM184 288C179.6 288 176 291.6 176 296V424C176 428.4 179.6 432 184 432H216C220.4 432 224 428.4 224 424V296C224 291.6 220.4 288 216 288H184z"/></svg>
